X: 3128
Q: "Reel."
M: C
L: 1/8
K: C
|:\
vcdcB cdef | (gf)ed (cB)AG |\
cEGc EcGc |[1 dDdc cBAG :|\
[2 dDdB [c2E2][c2E2] ||
|:\
[1 cege agfe | fAdc cBAG :|\
[2 geag fedc | BFdB [c2E2][c2E2] |]


